; generated by Slic3r 1.1.7 on 2014-09-05 at 12:49:15

; perimeters extrusion width = 0.40mm
; infill extrusion width = 0.42mm
; solid infill extrusion width = 0.42mm
; top infill extrusion width = 0.42mm

G21 ; set units to millimeters
M107
M190 S115 ; wait for bed temperature to be reached
M104 S250 ; set temperature
G28 ; home all axes
G1 Z5 F5000 ; lift nozzle

M109 S250 ; wait for temperature to be reached
G90 ; use absolute coordinates
G92 E0
M82 ; use absolute distances for extrusion
G1 F1800.000 E-1.00000
G92 E0
G1 Z0.400 F9000.000
G1 X85.413 Y66.290 F9000.000
G1 E1.00000 F1800.000
G1 X86.219 Y65.474 E1.04073 F1080.000
G1 X87.143 Y64.794 E1.08148
G1 X88.193 Y64.253 E1.12342
G1 X89.249 Y63.905 E1.16292
G1 X90.139 Y63.742 E1.19505
G1 X91.000 Y63.687 E1.22571
G1 X109.768 Y63.732 E1.89235
G1 X110.694 Y63.892 E1.92573 F1080.000
G1 X111.755 Y64.232 E1.96530
G1 X112.777 Y64.745 E2.00592
G1 X113.708 Y65.411 E2.04658
G1 X114.527 Y66.220 E2.08744
G1 X115.206 Y67.141 E2.12811
G1 X115.747 Y68.194 E2.17013
G1 X116.102 Y69.281 E2.21078
G1 X116.258 Y70.140 E2.24179
G1 X116.313 Y71.000 E2.27239
G1 X116.269 Y129.767 E4.35974
G1 X116.116 Y130.662 E4.39201
G1 X115.768 Y131.755 E4.43275
G1 X115.256 Y132.776 E4.47333
G1 X114.564 Y133.737 E4.51538
G1 X113.780 Y134.528 E4.55494
G1 X112.858 Y135.206 E4.59556
G1 X111.808 Y135.746 E4.63751
G1 X110.754 Y136.094 E4.67695
G1 X109.860 Y136.258 E4.70923
G1 X109.000 Y136.313 E4.73984
G1 X90.233 Y136.269 E5.40643
G1 X89.337 Y136.116 E5.43870
G1 X88.246 Y135.769 E5.47938
G1 X87.224 Y135.256 E5.51999
G1 X86.292 Y134.589 E5.56071
G1 X85.473 Y133.780 E5.60158
G1 X84.794 Y132.858 E5.64226
G1 X84.267 Y131.841 E5.68295
G1 X83.905 Y130.751 E5.72375
G1 X83.742 Y129.861 E5.75586
G1 X83.687 Y129.000 E5.78652
G1 X83.732 Y70.232 E7.87393
G1 X83.884 Y69.340 E7.90608
G1 X84.245 Y68.214 E7.94808
G1 X84.745 Y67.222 E7.98753
G1 X85.378 Y66.339 E8.02613
G1 F1800.000 E7.02613
G92 E0
G1 X105.953 Y105.953 F9000.000
G1 E1.00000 F1800.000
G1 X94.047 Y105.953 E1.42292 F900.000
G1 X94.047 Y94.047 E1.84583
G1 X105.953 Y94.047 E2.26875
G1 X105.953 Y105.893 E2.68953
G1 X105.239 Y105.239 F9000.000
G1 X94.761 Y105.239 E3.06172 F900.000
G1 X94.761 Y94.761 E3.43390
G1 X105.239 Y94.761 E3.80608
G1 X105.239 Y105.179 E4.17614
G1 X104.525 Y104.525 F9000.000
G1 X95.475 Y104.525 E4.49759 F630.000
G1 X95.475 Y95.475 E4.81904
G1 X104.525 Y95.475 E5.14049
G1 X104.525 Y104.465 E5.45981
G1 X104.525 Y104.925 F9000.000
G1 X107.770 Y127.770 F9000.000
G1 X92.230 Y127.770 E6.01178 F900.000
G1 X92.230 Y72.230 E7.98453
G1 X107.770 Y72.230 E8.53650
G1 X107.770 Y127.710 E10.50712
G1 X108.484 Y128.484 F9000.000
G1 X91.516 Y128.484 E11.10982 F900.000
G1 X91.516 Y71.516 E13.13331
G1 X108.484 Y71.516 E13.73601
G1 X108.484 Y128.424 E15.75736
G1 X109.198 Y129.198 F9000.000
G1 X90.802 Y129.198 E16.41080 F630.000
G1 X90.802 Y70.802 E18.48502
G1 X109.198 Y70.802 E19.13846
G1 X109.198 Y129.138 E21.21054
G1 X108.852 Y128.998 F9000.000
G1 X92.768 Y127.272 F9000.000
G1 X92.728 Y127.232 E21.21255 F1080.000
G1 X92.728 Y126.205 E21.24904
G1 X93.795 Y127.272 E21.30265
G1 X94.822 Y127.272 E21.33914
G1 X92.728 Y125.178 E21.44436
G1 X92.728 Y124.150 E21.48085
G1 X95.850 Y127.272 E21.63767
G1 X96.877 Y127.272 E21.67416
G1 X92.728 Y123.123 E21.88258
G1 X92.728 Y122.096 E21.91907
G1 X97.904 Y127.272 E22.17910
G1 X98.932 Y127.272 E22.21559
G1 X92.728 Y121.068 E22.52723
G1 X92.728 Y120.041 E22.56372
G1 X99.959 Y127.272 E22.92695
G1 X100.986 Y127.272 E22.96344
G1 X92.728 Y119.014 E23.37828
G1 X92.728 Y117.986 E23.41477
G1 X102.014 Y127.272 E23.88122
G1 X103.041 Y127.272 E23.91771
G1 X92.728 Y116.959 E24.43576
G1 X92.728 Y115.932 E24.47225
G1 X104.068 Y127.272 E25.04190
G1 X105.096 Y127.272 E25.07839
G1 X92.728 Y114.905 E25.69965
G1 X92.728 Y113.877 E25.73614
G1 X106.123 Y127.272 E26.40900
G1 X107.150 Y127.272 E26.44549
G1 X92.728 Y112.850 E27.16996
G1 X92.728 Y111.823 E27.20645
G1 X107.272 Y126.367 E27.93705
G1 X107.272 Y125.340 E27.97354
G1 X92.728 Y110.795 E28.70414
G1 X92.728 Y109.768 E28.74063
G1 X107.272 Y124.313 E29.47124
G1 X107.272 Y123.285 E29.50773
G1 X92.728 Y108.741 E30.23833
G1 X92.728 Y107.713 E30.27482
G1 X107.272 Y122.258 E31.00542
G1 X107.272 Y121.231 E31.04191
G1 X92.850 Y106.808 E31.76638
G1 X93.877 Y106.808 E31.80287
G1 X107.272 Y120.203 E32.47573
G1 X107.272 Y119.176 E32.51222
G1 X94.547 Y106.451 E33.15142
G1 X95.575 Y106.451 E33.18791
G1 X107.272 Y118.149 E33.77550
G1 X107.272 Y117.121 E33.81199
G1 X96.602 Y106.451 E34.34797
G1 X97.629 Y106.451 E34.38446
G1 X107.272 Y116.094 E34.86885
G1 X107.272 Y115.067 E34.90534
G1 X98.657 Y106.451 E35.33811
G1 X99.684 Y106.451 E35.37460
G1 X107.272 Y114.039 E35.75578
G1 X107.272 Y113.012 E35.79227
G1 X100.711 Y106.451 E36.12184
G1 X101.739 Y106.451 E36.15833
G1 X107.272 Y111.985 E36.43629
G1 X107.272 Y110.957 E36.47278
G1 X102.766 Y106.451 E36.69915
G1 X103.793 Y106.451 E36.73564
G1 X107.272 Y109.930 E36.91039
G1 X107.272 Y108.903 E36.94688
G1 X104.821 Y106.451 E37.07004
G1 X106.205 Y106.808 E37.12082
G1 X107.272 Y107.875 E37.17443
G1 X107.272 Y106.848 E37.21092
G1 X107.232 Y106.808 E37.21293
G1 X106.862 Y106.310 F9000.000
G1 X106.862 Y93.690 E37.91230 F360.000
G1 X93.138 Y93.690 F9000.000
G1 X93.138 Y106.310 E38.61166 F360.000
G1 X92.768 Y93.192 F9000.000
G1 X92.728 Y93.152 E38.61367 F1080.000
G1 X92.728 Y92.125 E38.65016
G1 X93.795 Y93.192 E38.70377
G1 X95.179 Y93.549 E38.75456
G1 X92.728 Y91.097 E38.87771
G1 X92.728 Y90.070 E38.91420
G1 X96.207 Y93.549 E39.08896
G1 X97.234 Y93.549 E39.12545
G1 X92.728 Y89.043 E39.35181
G1 X92.728 Y88.015 E39.38830
G1 X98.261 Y93.549 E39.66626
G1 X99.289 Y93.549 E39.70275
G1 X92.728 Y86.988 E40.03232
G1 X92.728 Y85.961 E40.06881
G1 X100.316 Y93.549 E40.44999
G1 X101.343 Y93.549 E40.48648
G1 X92.728 Y84.933 E40.91925
G1 X92.728 Y83.906 E40.95574
G1 X102.371 Y93.549 E41.44012
G1 X103.398 Y93.549 E41.47661
G1 X92.728 Y82.879 E42.01260
G1 X92.728 Y81.851 E42.04909
G1 X104.425 Y93.549 E42.63668
G1 X105.453 Y93.549 E42.67317
G1 X92.728 Y80.824 E43.31236
G1 X92.728 Y79.797 E43.34885
G1 X106.123 Y93.192 E44.02172
G1 X107.150 Y93.192 E44.05821
G1 X92.728 Y78.769 E44.78267
G1 X92.728 Y77.742 E44.81916
G1 X107.272 Y92.287 E45.54976
G1 X107.272 Y91.259 E45.58625
G1 X92.728 Y76.715 E46.31686
G1 X92.728 Y75.688 E46.35335
G1 X107.272 Y90.232 E47.08395
G1 X107.272 Y89.205 E47.12044
G1 X92.728 Y74.660 E47.85104
G1 X92.728 Y73.633 E47.88753
G1 X107.272 Y88.177 E48.61813
G1 X107.272 Y87.150 E48.65462
G1 X92.850 Y72.728 E49.37909
G1 X93.877 Y72.728 E49.41558
G1 X107.272 Y86.123 E50.08844
G1 X107.272 Y85.096 E50.12493
G1 X94.905 Y72.728 E50.74619
G1 X95.932 Y72.728 E50.78268
G1 X107.272 Y84.068 E51.35233
G1 X107.272 Y83.041 E51.38882
G1 X96.959 Y72.728 E51.90687
G1 X97.986 Y72.728 E51.94336
G1 X107.272 Y82.014 E52.40981
G1 X107.272 Y80.986 E52.44630
G1 X99.014 Y72.728 E52.86114
G1 X100.041 Y72.728 E52.89763
G1 X107.272 Y79.959 E53.26087
G1 X107.272 Y78.932 E53.29736
G1 X101.068 Y72.728 E53.60899
G1 X102.096 Y72.728 E53.64548
G1 X107.272 Y77.904 E53.90551
G1 X107.272 Y76.877 E53.94200
G1 X103.123 Y72.728 E54.15042
G1 X104.150 Y72.728 E54.18691
G1 X107.272 Y75.850 E54.34373
G1 X107.272 Y74.822 E54.38022
G1 X105.178 Y72.728 E54.48544
G1 X106.205 Y72.728 E54.52193
G1 X107.272 Y73.795 E54.57554
G1 X107.272 Y72.768 E54.61203
G1 X107.232 Y72.728 E54.61404
M106 S149
M104 S235 ; set temperature
M140 S110 ; set bed temperature
G1 F1800.000 E53.61404
G92 E0
G1 Z0.700 F9000.000
G1 X105.125 Y105.125 F9000.000
G1 E1.00000 F1800.000
G1 X94.875 Y105.125 E1.15294 F3000.000
G1 X94.875 Y94.875 E1.30588
G1 X105.125 Y94.875 E1.45881
G1 X105.125 Y105.065 E1.61086
G1 X104.725 Y104.725 F9000.000
G1 X95.275 Y104.725 E1.75186 F3000.000
G1 X95.275 Y95.275 E1.89286
G1 X104.725 Y95.275 E2.03386
G1 X104.725 Y104.665 E2.17397
G1 X104.325 Y104.325 F9000.000
G1 X95.675 Y104.325 E2.30303 F2100.000
G1 X95.675 Y95.675 E2.43210
G1 X104.325 Y95.675 E2.56116
G1 X104.325 Y104.265 E2.68933
G1 X104.325 Y104.725 F9000.000
G1 X108.893 Y128.893 F9000.000
G1 X91.107 Y128.893 E2.95470 F3000.000
G1 X91.107 Y71.107 E3.81690
G1 X108.893 Y71.107 E4.08227
G1 X108.893 Y128.833 E4.94358
G1 X109.274 Y70.911 F9000.000
G1 X109.293 Y71.063 E4.94586 F3000.000
G1 X109.293 Y128.936 E5.80937
G1 X109.274 Y129.089 E5.81168
G1 X109.203 Y129.204 E5.81368
G1 X109.131 Y129.256 E5.81502
G1 X108.937 Y129.293 E5.81796
G1 X91.063 Y129.293 E6.08466
G1 X90.869 Y129.256 E6.08759
G1 X90.796 Y129.203 E6.08894
G1 X90.744 Y129.131 E6.09028
G1 X90.707 Y128.937 E6.09322
G1 X90.707 Y71.063 E6.95675
G1 X90.726 Y70.911 E6.95903
G1 X90.767 Y70.831 E6.96037
G1 X90.869 Y70.744 E6.96238
G1 X91.063 Y70.707 E6.96531
G1 X108.937 Y70.707 E7.23201
G1 X109.131 Y70.744 E7.23495
G1 X109.249 Y70.857 E7.23739
G1 X109.643 Y70.758 F9000.000
G1 X109.680 Y70.892 E7.23947 F2100.000
G1 X109.693 Y71.047 E7.24178
G1 X109.693 Y128.951 E8.10576
G1 X109.655 Y129.213 E8.10970
G1 X109.557 Y129.405 E8.11292
G1 X109.405 Y129.557 E8.11614
G1 X109.213 Y129.655 E8.11935
G1 X108.953 Y129.693 E8.12327
G1 X91.047 Y129.693 E8.39044
G1 X90.787 Y129.655 E8.39436
G1 X90.595 Y129.557 E8.39758
G1 X90.481 Y129.450 E8.39991
G1 X90.386 Y129.313 E8.40240
G1 X90.320 Y129.108 E8.40562
G1 X90.307 Y128.953 E8.40793
G1 X90.307 Y71.047 E9.27194
G1 X90.345 Y70.787 E9.27585
G1 X90.443 Y70.595 E9.27907
G1 X90.595 Y70.443 E9.28229
G1 X90.787 Y70.345 E9.28550
G1 X91.047 Y70.307 E9.28942
G1 X109.049 Y70.315 E9.55802
G1 X109.213 Y70.345 E9.56051 F2100.000
G1 X109.405 Y70.443 E9.56373
G1 X109.557 Y70.595 E9.56694
G1 X109.620 Y70.703 E9.56880
G1 X109.209 Y70.362 F9000.000
G1 X91.422 Y71.382 F9000.000
G1 X91.382 Y71.422 E9.56969 F3600.000
G1 X91.382 Y72.017 E9.57898
G1 X92.017 Y71.382 E9.59302
G1 X92.612 Y71.382 E9.60232
G1 X91.382 Y72.612 E9.62950
G1 X91.382 Y73.207 E9.63880
G1 X93.207 Y71.382 E9.67914
G1 X93.802 Y71.382 E9.68844
G1 X91.382 Y73.802 E9.74193
G1 X91.382 Y74.397 E9.75123
G1 X94.397 Y71.382 E9.81787
G1 X94.992 Y71.382 E9.82717
G1 X91.382 Y74.992 E9.90696
G1 X91.382 Y75.588 E9.91626
G1 X95.588 Y71.382 E10.00920
G1 X96.183 Y71.382 E10.01850
G1 X91.382 Y76.183 E10.12459
G1 X91.382 Y76.778 E10.13389
G1 X96.778 Y71.382 E10.25313
G1 X97.373 Y71.382 E10.26243
G1 X91.382 Y77.373 E10.39483
G1 X91.382 Y77.968 E10.40412
G1 X97.968 Y71.382 E10.54967
G1 X98.563 Y71.382 E10.55897
G1 X91.382 Y78.563 E10.71767
G1 X91.382 Y79.159 E10.72697
G1 X99.159 Y71.382 E10.89881
G1 X99.754 Y71.382 E10.90811
G1 X91.382 Y79.754 E11.09311
G1 X91.382 Y80.349 E11.10241
G1 X100.349 Y71.382 E11.30056
G1 X100.944 Y71.382 E11.30986
G1 X91.382 Y80.944 E11.52116
G1 X91.382 Y81.539 E11.53046
G1 X101.539 Y71.382 E11.75491
G1 X102.134 Y71.382 E11.76421
G1 X91.382 Y82.134 E12.00182
G1 X91.382 Y82.729 E12.01111
G1 X102.729 Y71.382 E12.26187
G1 X103.325 Y71.382 E12.27117
G1 X91.382 Y83.325 E12.53507
G1 X91.382 Y83.920 E12.54437
G1 X103.920 Y71.382 E12.82143
G1 X104.515 Y71.382 E12.83073
G1 X91.382 Y84.515 E13.12094
G1 X91.382 Y85.110 E13.13023
G1 X105.110 Y71.382 E13.43359
G1 X105.705 Y71.382 E13.44289
G1 X91.382 Y85.705 E13.75940
G1 X91.382 Y86.300 E13.76870
G1 X106.300 Y71.382 E14.09836
G1 X106.895 Y71.382 E14.10766
G1 X91.382 Y86.895 E14.45047
G1 X91.382 Y87.491 E14.45977
G1 X107.491 Y71.382 E14.81574
G1 X108.086 Y71.382 E14.82503
G1 X91.382 Y88.086 E15.19415
G1 X91.382 Y88.681 E15.20345
G1 X108.618 Y71.444 E15.58433
G1 X108.618 Y72.039 E15.59363
G1 X91.382 Y89.276 E15.97452
G1 X91.382 Y89.871 E15.98382
G1 X108.618 Y72.634 E16.36470
G1 X108.618 Y73.229 E16.37400
G1 X91.382 Y90.466 E16.75488
G1 X91.382 Y91.062 E16.76418
G1 X108.618 Y73.825 E17.14507
G1 X108.618 Y74.420 E17.15437
G1 X91.382 Y91.657 E17.53525
G1 X91.382 Y92.252 E17.54455
G1 X108.618 Y75.015 E17.92543
G1 X108.618 Y75.610 E17.93473
G1 X91.382 Y92.847 E18.31562
G1 X91.382 Y93.442 E18.32492
G1 X108.618 Y76.205 E18.70580
G1 X108.618 Y76.800 E18.71510
G1 X91.382 Y94.037 E19.09599
G1 X91.382 Y94.632 E19.10529
G1 X108.618 Y77.396 E19.48617
G1 X108.618 Y77.991 E19.49547
G1 X91.382 Y95.228 E19.87635
G1 X91.382 Y95.823 E19.88565
G1 X108.618 Y78.586 E20.26654
G1 X108.618 Y79.181 E20.27584
G1 X91.382 Y96.418 E20.65672
G1 X91.382 Y97.013 E20.66602
G1 X108.618 Y79.776 E21.04690
G1 X108.618 Y80.371 E21.05620
G1 X91.382 Y97.608 E21.43709
G1 X91.382 Y98.203 E21.44639
G1 X94.601 Y94.984 E21.51752
G1 X94.984 Y94.601 F9000.000
G1 X108.618 Y80.966 E21.81880 F3600.000
G1 X108.618 Y81.562 E21.82810
G1 X95.579 Y94.601 E22.11623
G1 X96.174 Y94.601 E22.12553
G1 X108.618 Y82.157 E22.40051
G1 X108.618 Y82.752 E22.40980
G1 X96.770 Y94.601 E22.67163
G1 X97.365 Y94.601 E22.68093
G1 X108.618 Y83.347 E22.92960
G1 X108.618 Y83.942 E22.93890
G1 X97.960 Y94.601 E23.17443
G1 X98.555 Y94.601 E23.18373
G1 X108.618 Y84.537 E23.40610
G1 X108.618 Y85.132 E23.41540
G1 X99.150 Y94.601 E23.62462
G1 X99.745 Y94.601 E23.63392
G1 X108.618 Y85.728 E23.82999
G1 X108.618 Y86.323 E23.83929
G1 X100.340 Y94.601 E24.02221
G1 X100.936 Y94.601 E24.03151
G1 X108.618 Y86.918 E24.20128
G1 X108.618 Y87.513 E24.21058
G1 X101.531 Y94.601 E24.36719
G1 X102.126 Y94.601 E24.37649
G1 X108.618 Y88.108 E24.51996
G1 X108.618 Y88.703 E24.52926
G1 X102.721 Y94.601 E24.65957
G1 X103.316 Y94.601 E24.66887
G1 X108.618 Y89.299 E24.78604
G1 X108.618 Y89.894 E24.79533
G1 X103.911 Y94.601 E24.89935
G1 X104.506 Y94.601 E24.90865
G1 X108.618 Y90.489 E24.99951
G1 X108.618 Y91.084 E25.00881
G1 X105.102 Y94.601 E25.08652
G1 X105.399 Y94.898 E25.09309
G1 X108.618 Y91.679 E25.16423
G1 X108.618 Y92.274 E25.17353
G1 X105.399 Y95.493 E25.24466
G1 X105.399 Y96.089 E25.25396
G1 X108.618 Y92.869 E25.32510
G1 X108.618 Y93.465 E25.33440
G1 X105.399 Y96.684 E25.40553
G1 X105.399 Y97.279 E25.41483
G1 X108.618 Y94.060 E25.48597
G1 X108.618 Y94.655 E25.49526
G1 X105.399 Y97.874 E25.56640
G1 X105.399 Y98.469 E25.57570
G1 X108.618 Y95.250 E25.64683
G1 X108.618 Y95.845 E25.65613
G1 X105.399 Y99.064 E25.72727
G1 X105.399 Y99.660 E25.73657
G1 X108.618 Y96.440 E25.80770
G1 X108.618 Y97.035 E25.81700
G1 X105.399 Y100.255 E25.88814
G1 X105.399 Y100.850 E25.89744
G1 X108.618 Y97.631 E25.96857
G1 X108.618 Y98.226 E25.97787
G1 X105.399 Y101.445 E26.04900
G1 X105.399 Y102.040 E26.05830
G1 X108.618 Y98.821 E26.12944
G1 X108.618 Y99.416 E26.13874
G1 X105.399 Y102.635 E26.20987
G1 X105.399 Y103.230 E26.21917
G1 X108.618 Y100.011 E26.29031
G1 X108.618 Y100.606 E26.29961
G1 X105.399 Y103.826 E26.37074
G1 X105.399 Y104.421 E26.38004
G1 X108.618 Y101.202 E26.45118
G1 X108.618 Y101.797 E26.46047
G1 X105.399 Y105.016 E26.53161
G1 X105.016 Y105.399 F9000.000
G1 X91.382 Y119.034 E26.83289 F3600.000
G1 X91.382 Y119.629 E26.84219
G1 X108.618 Y102.392 E27.22307
G1 X108.618 Y102.987 E27.23237
G1 X91.382 Y120.224 E27.61326
G1 X91.382 Y120.819 E27.62255
G1 X108.618 Y103.582 E28.00344
G1 X108.618 Y104.177 E28.01274
G1 X91.382 Y121.414 E28.39362
G1 X91.382 Y122.009 E28.40292
G1 X108.618 Y104.772 E28.78381
G1 X108.618 Y105.368 E28.79311
G1 X91.382 Y122.604 E29.17399
G1 X91.382 Y123.200 E29.18329
G1 X108.618 Y105.963 E29.56417
G1 X108.618 Y106.558 E29.57347
G1 X91.382 Y123.795 E29.95436
G1 X91.382 Y124.390 E29.96366
G1 X108.618 Y107.153 E30.34454
G1 X108.618 Y107.748 E30.35384
G1 X91.382 Y124.985 E30.73472
G1 X91.382 Y125.580 E30.74402
G1 X108.618 Y108.343 E31.12491
G1 X108.618 Y108.938 E31.13421
G1 X91.382 Y126.175 E31.51509
G1 X91.382 Y126.770 E31.52439
G1 X108.618 Y109.534 E31.90528
G1 X108.618 Y110.129 E31.91457
G1 X91.382 Y127.366 E32.29546
G1 X91.382 Y127.961 E32.30476
G1 X108.618 Y110.724 E32.68564
G1 X108.618 Y111.319 E32.69494
G1 X91.382 Y128.556 E33.07583
G1 X91.914 Y128.618 E33.08421
G1 X108.618 Y111.914 E33.45332
G1 X108.618 Y112.509 E33.46262
G1 X92.509 Y128.618 E33.81858
G1 X93.105 Y128.618 E33.82788
G1 X108.618 Y113.105 E34.17069
G1 X108.618 Y113.700 E34.17999
G1 X93.700 Y128.618 E34.50965
G1 X94.295 Y128.618 E34.51895
G1 X108.618 Y114.295 E34.83546
G1 X108.618 Y114.890 E34.84476
G1 X94.890 Y128.618 E35.14812
G1 X95.485 Y128.618 E35.15742
G1 X108.618 Y115.485 E35.44763
G1 X108.618 Y116.080 E35.45693
G1 X96.080 Y128.618 E35.73398
G1 X96.675 Y128.618 E35.74328
G1 X108.618 Y116.675 E36.00719
